; generated by Slic3r 1.3.0 on 2022-09-13 at 14:13:48

; external perimeters extrusion width = 0.25mm (1.47mm^3/s)
; perimeters extrusion width = 0.25mm (2.95mm^3/s)
; infill extrusion width = 0.25mm (3.93mm^3/s)
; solid infill extrusion width = 0.25mm (0.98mm^3/s)
; top infill extrusion width = 0.25mm (0.74mm^3/s)

M107

M140 S70	; start to heat up bed
M104 S200		; start to heat up extruder

G28									; home all axes

M190 S70	; wait to heat up bed
M109 S200		; wait to heat up extruder

M117									; Purge extruder

G92 E0									; reset extruder 

G1 F1800								; set speed
G1 Z5									; move up
G1 E15									; squirt
G1 X20 Y20 Z0							; move onto bed
G1 E10									; insuck 
G1 X60 Y20 Z0							; wipe the end
G1 E15									; unsuck

G92 E0									; reset extruder 

M117 xixs.com							; say hello world


; Filament gcode

G21 ; set units to millimeters
G90 ; use absolute coordinates
M82 ; use absolute distances for extrusion
G92 E0
G1 Z0.250 F7800.000
G1 E-4.00000 F2400.00000
G92 E0
G1 X110.726 Y106.601 F7800.000
G1 E4.00000 F2400.00000
G1 F1726.06
G1 X116.848 Y106.534 E4.12493
G1 X110.933 Y113.548 E4.31217
G1 X110.728 Y106.661 E4.45277
G1 X110.523 Y106.257 F7800.000
G1 X109.274 Y106.601 F7800.000
G1 F1726.06
G1 X109.067 Y113.548 E4.59459
G1 X103.152 Y106.534 E4.78183
G1 X109.214 Y106.601 E4.90553
G1 X109.626 Y106.412 F7800.000
G1 X109.732 Y106.608 F7800.000
G1 F1726.06
G1 X109.435 Y113.638 E5.04914
G1 X108.770 Y113.829 E5.06327
G1 X102.243 Y106.153 E5.26890
G1 X117.757 Y106.153 E5.58553
G1 X111.230 Y113.829 E5.79116
G1 X110.565 Y113.638 E5.80529
G1 X110.268 Y106.608 E5.94890
G1 X109.792 Y106.608 E5.95863
G1 X109.383 Y106.412 F7800.000
G1 X109.506 Y106.504 F7800.000
G1 F1726.06
G1 X109.252 Y113.589 E6.11288
G1 X108.916 Y113.685 F7800.000
G1 F1726.06
G1 X102.843 Y106.514 E6.30574
G1 F1726.06
G1 X102.788 Y106.405 E6.30896
G1 X102.839 Y106.384 E6.31042
G1 F1726.06
G1 X102.940 Y106.342 E6.31269
G1 X109.376 Y106.378 E6.44590
G1 F1726.06
G1 X109.508 Y106.413 E6.44973
G1 F1726.06
G1 X109.506 Y106.504 E6.45227
G1 X109.508 Y106.413 F7800.000
G1 F1726.06
G1 X109.573 Y106.397 E6.45414
G1 F1726.06
G1 X109.637 Y106.381 E6.45556
G1 X110.363 Y106.381 E6.47097
G1 F1726.06
G1 X110.492 Y106.413 E6.47471
G1 F1726.06
G1 X110.494 Y106.504 E6.47726
G1 F1726.06
G1 X110.748 Y113.589 E6.63150
G1 X111.084 Y113.685 F7800.000
G1 F1726.06
G1 X117.157 Y106.514 E6.82436
G1 X117.184 Y106.460 E6.82562
G1 F1726.06
G1 X117.212 Y106.405 E6.82723
G1 X117.111 Y106.363 E6.83013
G1 F1726.06
G1 X117.060 Y106.342 E6.83111
G1 X110.624 Y106.378 E6.94494
G1 F1726.06
G1 X110.492 Y106.413 E6.94826
M140 S60 ; set bed temperature
G1 Z0.500 F7800.000
G1 X109.274 Y106.601 F7800.000
G1 F900
G1 X109.067 Y113.548 E7.09009
G1 X103.152 Y106.534 E7.27733
G1 X109.214 Y106.601 E7.40103
G1 X109.674 Y106.603 F7800.000
G1 X110.726 Y106.601 F7800.000
G1 F900
G1 X116.848 Y106.534 E7.52596
G1 X110.933 Y113.548 E7.71320
G1 X110.728 Y106.661 E7.85380
G1 X111.126 Y106.597 F7800.000
G1 X110.268 Y106.608 F7800.000
G1 F1800
G1 X109.732 Y106.608 E7.86475
G1 X109.435 Y113.638 E8.00836
G1 X108.770 Y113.829 E8.02249
G1 X102.243 Y106.153 E8.22812
G1 X117.757 Y106.153 E8.54475
G1 X111.230 Y113.829 E8.75038
G1 X110.565 Y113.638 E8.76451
G1 X110.271 Y106.668 E8.90690
G1 X110.256 Y106.208 F7800.000
G1 X110.494 Y106.504 F7800.000
G1 F1200
G1 X110.748 Y113.589 E9.06114
G1 X111.084 Y113.685 F7800.000
G1 F1200
G1 X117.157 Y106.514 E9.25400
G1 X117.184 Y106.460 E9.25526
G1 F1200
G1 X117.212 Y106.405 E9.25687
G1 X117.111 Y106.363 E9.25977
G1 F1200
G1 X117.060 Y106.342 E9.26075
G1 X110.624 Y106.378 E9.37458
G1 F1200
G1 X110.492 Y106.413 E9.37790
G1 F1200
G1 X110.363 Y106.381 E9.38164
G1 F1200
G1 X109.637 Y106.381 E9.39705
G1 X109.573 Y106.397 E9.39847
G1 F1200
G1 X109.508 Y106.413 E9.40034
G1 F1200
G1 X109.376 Y106.378 E9.40416
G1 F1200
G1 X102.940 Y106.342 E9.53737
G1 X102.839 Y106.384 E9.53965
G1 F1200
G1 X102.788 Y106.405 E9.54110
G1 X102.843 Y106.514 E9.54433
G1 F1200
G1 X108.916 Y113.685 E9.73718
G1 X109.252 Y113.589 F7800.000
G1 F1200
G1 X109.506 Y106.504 E9.89143
G1 F1200
G1 X109.508 Y106.413 E9.89398
G1 X110.492 Y106.413 F7800.000
G1 F1200
G1 X110.494 Y106.504 E9.89653
G1 Z0.750 F7800.000
G1 X109.274 Y106.601 F7800.000
G1 F900
G1 X109.067 Y113.548 E10.03835
G1 X103.152 Y106.534 E10.22559
G1 X109.214 Y106.601 E10.34929
G1 X109.674 Y106.599 F7800.000
G1 X110.726 Y106.601 F7800.000
G1 F900
G1 X116.848 Y106.534 E10.47422
G1 X110.933 Y113.548 E10.66146
G1 X110.728 Y106.661 E10.80206
G1 X110.523 Y106.257 F7800.000
G1 X110.268 Y106.608 F7800.000
G1 F1800
G1 X109.732 Y106.608 E10.81302
G1 X109.435 Y113.638 E10.95663
G1 X108.770 Y113.829 E10.97076
G1 X102.243 Y106.153 E11.17639
G1 X117.757 Y106.153 E11.49301
G1 X111.230 Y113.829 E11.69864
G1 X110.565 Y113.638 E11.71278
G1 X110.271 Y106.668 E11.85516
G1 X110.258 Y106.208 F7800.000
G1 X110.494 Y106.504 F7800.000
G1 F1200
G1 X110.748 Y113.589 E12.00941
G1 X111.084 Y113.685 F7800.000
G1 F1200
G1 X117.157 Y106.514 E12.20227
G1 X117.184 Y106.460 E12.20352
G1 F1200
G1 X117.212 Y106.405 E12.20513
G1 X117.111 Y106.363 E12.20804
G1 F1200
G1 X117.060 Y106.342 E12.20901
G1 X110.624 Y106.378 E12.32285
G1 F1200
G1 X110.492 Y106.413 E12.32617
G1 F1200
G1 X110.363 Y106.381 E12.32991
G1 F1200
G1 X109.637 Y106.381 E12.34532
G1 X109.573 Y106.397 E12.34673
G1 F1200
G1 X109.508 Y106.413 E12.34861
G1 F1200
G1 X109.376 Y106.378 E12.35243
G1 F1200
G1 X102.940 Y106.342 E12.48564
G1 X102.839 Y106.384 E12.48791
G1 F1200
G1 X102.788 Y106.405 E12.48937
G1 X102.843 Y106.514 E12.49259
G1 F1200
G1 X108.916 Y113.685 E12.68545
G1 X109.252 Y113.589 F7800.000
G1 F1200
G1 X109.506 Y106.504 E12.83970
G1 F1200
G1 X109.508 Y106.413 E12.84225
G1 X110.492 Y106.413 F7800.000
G1 F1200
G1 X110.494 Y106.504 E12.84480
M106 S247.35
G1 Z1.000 F7800.000
G1 X109.274 Y106.601 F7800.000
G1 F900
G1 X109.067 Y113.548 E12.98662
G1 X103.152 Y106.534 E13.17386
G1 X109.214 Y106.601 E13.29756
G1 X109.673 Y106.597 F7800.000
G1 X110.726 Y106.601 F7800.000
G1 F900
G1 X116.848 Y106.534 E13.42249
G1 X110.933 Y113.548 E13.60973
G1 X110.728 Y106.661 E13.75033
G1 X110.523 Y106.257 F7800.000
G1 X110.268 Y106.608 F7800.000
G1 F1800
G1 X109.732 Y106.608 E13.76128
G1 X109.435 Y113.638 E13.90489
G1 X108.770 Y113.829 E13.91902
G1 X102.243 Y106.153 E14.12465
G1 X117.757 Y106.153 E14.44128
G1 X111.230 Y113.829 E14.64691
G1 X110.565 Y113.638 E14.66104
G1 X110.271 Y106.668 E14.80343
G1 X110.256 Y106.208 F7800.000
G1 X110.494 Y106.504 F7800.000
G1 F1200
G1 X110.748 Y113.589 E14.95767
G1 X111.084 Y113.685 F7800.000
G1 F1200
G1 X117.157 Y106.514 E15.15053
G1 X117.184 Y106.460 E15.15179
G1 F1200
G1 X117.212 Y106.405 E15.15340
G1 X117.111 Y106.363 E15.15630
G1 F1200
G1 X117.060 Y106.342 E15.15728
G1 X110.624 Y106.378 E15.27111
G1 F1200
G1 X110.492 Y106.413 E15.27444
G1 F1200
G1 X110.363 Y106.381 E15.27818
G1 F1200
G1 X109.637 Y106.381 E15.29358
G1 X109.573 Y106.397 E15.29500
G1 F1200
G1 X109.508 Y106.413 E15.29687
G1 F1200
G1 X109.376 Y106.378 E15.30069
G1 F1200
G1 X102.940 Y106.342 E15.43391
G1 X102.839 Y106.384 E15.43618
G1 F1200
G1 X102.788 Y106.405 E15.43763
G1 X102.843 Y106.514 E15.44086
G1 F1200
G1 X108.916 Y113.685 E15.63372
G1 X109.252 Y113.589 F7800.000
G1 F1200
G1 X109.506 Y106.504 E15.78796
G1 F1200
G1 X109.508 Y106.413 E15.79051
G1 X110.492 Y106.413 F7800.000
G1 F1200
G1 X110.494 Y106.504 E15.79306
G1 Z1.250 F7800.000
G1 X109.274 Y106.601 F7800.000
G1 F900
G1 X109.067 Y113.548 E15.93488
G1 X103.152 Y106.534 E16.12212
G1 X109.214 Y106.601 E16.24583
G1 X109.673 Y106.594 F7800.000
G1 X110.726 Y106.601 F7800.000
G1 F900
G1 X116.848 Y106.534 E16.37075
G1 X110.933 Y113.548 E16.55799
G1 X110.728 Y106.661 E16.69859
G1 X111.126 Y106.597 F7800.000
G1 X110.268 Y106.608 F7800.000
G1 F1800
G1 X109.732 Y106.608 E16.70955
G1 X109.435 Y113.638 E16.85316
G1 X108.770 Y113.829 E16.86729
G1 X102.243 Y106.153 E17.07292
G1 X117.757 Y106.153 E17.38954
G1 X111.230 Y113.829 E17.59518
G1 X110.565 Y113.638 E17.60931
G1 X110.271 Y106.668 E17.75169
G1 X110.256 Y106.208 F7800.000
G1 X110.494 Y106.504 F7800.000
G1 F1200
G1 X110.748 Y113.589 E17.90594
G1 X111.084 Y113.685 F7800.000
G1 F1200
G1 X117.157 Y106.514 E18.09880
G1 X117.184 Y106.460 E18.10005
G1 F1200
G1 X117.212 Y106.405 E18.10166
G1 X117.111 Y106.363 E18.10457
G1 F1200
G1 X117.060 Y106.342 E18.10554
G1 X110.624 Y106.378 E18.21938
G1 F1200
G1 X110.492 Y106.413 E18.22270
G1 F1200
G1 X110.363 Y106.381 E18.22644
G1 F1200
G1 X109.637 Y106.381 E18.24184
G1 X109.573 Y106.397 E18.24326
G1 F1200
G1 X109.508 Y106.413 E18.24513
G1 F1200
G1 X109.376 Y106.378 E18.24896
G1 F1200
G1 X102.940 Y106.342 E18.38217
G1 X102.839 Y106.384 E18.38444
G1 F1200
G1 X102.788 Y106.405 E18.38589
G1 X102.843 Y106.514 E18.38912
G1 F1200
G1 X108.916 Y113.685 E18.58198
G1 X109.252 Y113.589 F7800.000
G1 F1200
G1 X109.506 Y106.504 E18.73623
G1 F1200
G1 X109.508 Y106.413 E18.73878
G1 X110.492 Y106.413 F7800.000
G1 F1200
G1 X110.494 Y106.504 E18.74132
G1 Z1.500 F7800.000
G1 X109.274 Y106.601 F7800.000
G1 F900
G1 X109.067 Y113.548 E18.88315
G1 X103.152 Y106.534 E19.07039
G1 X109.214 Y106.601 E19.19409
G1 X109.673 Y106.591 F7800.000
G1 X110.726 Y106.601 F7800.000
G1 F900
G1 X116.848 Y106.534 E19.31902
G1 X110.933 Y113.548 E19.50626
G1 X110.728 Y106.661 E19.64686
G1 X110.523 Y106.257 F7800.000
G1 X110.268 Y106.608 F7800.000
G1 F1800
G1 X109.732 Y106.608 E19.65781
G1 X109.435 Y113.638 E19.80142
G1 X108.770 Y113.829 E19.81555
G1 X102.243 Y106.153 E20.02118
G1 X117.757 Y106.153 E20.33781
G1 X111.230 Y113.829 E20.54344
G1 X110.565 Y113.638 E20.55757
G1 X110.271 Y106.668 E20.69996
G1 X110.258 Y106.208 F7800.000
G1 X110.494 Y106.504 F7800.000
G1 F1200
G1 X110.748 Y113.589 E20.85420
G1 X111.084 Y113.685 F7800.000
G1 F1200
G1 X117.157 Y106.514 E21.04706
G1 X117.184 Y106.460 E21.04831
G1 F1200
G1 X117.212 Y106.405 E21.04993
G1 X117.111 Y106.363 E21.05283
G1 F1200
G1 X117.060 Y106.342 E21.05380
G1 X110.624 Y106.378 E21.16764
G1 F1200
G1 X110.492 Y106.413 E21.17096
G1 F1200
G1 X110.363 Y106.381 E21.17470
G1 F1200
G1 X109.637 Y106.381 E21.19011
G1 X109.573 Y106.397 E21.19153
G1 F1200
G1 X109.508 Y106.413 E21.19340
G1 F1200
G1 X109.376 Y106.378 E21.19722
G1 F1200
G1 X102.940 Y106.342 E21.33043
G1 X102.839 Y106.384 E21.33271
G1 F1200
G1 X102.788 Y106.405 E21.33416
G1 X102.843 Y106.514 E21.33739
G1 F1200
G1 X108.916 Y113.685 E21.53024
G1 X109.252 Y113.589 F7800.000
G1 F1200
G1 X109.506 Y106.504 E21.68449
G1 F1200
G1 X109.508 Y106.413 E21.68704
G1 X110.492 Y106.413 F7800.000
G1 F1200
G1 X110.494 Y106.504 E21.68959
G1 Z1.750 F7800.000
G1 X109.274 Y106.601 F7800.000
G1 F900
G1 X109.067 Y113.548 E21.83141
G1 X103.152 Y106.534 E22.01865
G1 X109.214 Y106.601 E22.14235
G1 X109.673 Y106.588 F7800.000
G1 X110.726 Y106.601 F7800.000
G1 F900
G1 X116.848 Y106.534 E22.26728
G1 X110.933 Y113.548 E22.45452
G1 X110.728 Y106.661 E22.59512
G1 X110.523 Y106.257 F7800.000
G1 X110.268 Y106.608 F7800.000
G1 F1800
G1 X109.732 Y106.608 E22.60608
G1 X109.435 Y113.638 E22.74968
G1 X108.770 Y113.829 E22.76382
G1 X102.243 Y106.153 E22.96945
G1 X117.757 Y106.153 E23.28607
G1 X111.230 Y113.829 E23.49170
G1 X110.565 Y113.638 E23.50583
G1 X110.271 Y106.668 E23.64822
G1 X110.256 Y106.208 F7800.000
G1 X110.494 Y106.504 F7800.000
G1 F1200
G1 X110.748 Y113.589 E23.80247
G1 X111.084 Y113.685 F7800.000
G1 F1200
G1 X117.157 Y106.514 E23.99532
G1 X117.184 Y106.460 E23.99658
G1 F1200
G1 X117.212 Y106.405 E23.99819
G1 X117.111 Y106.363 E24.00109
G1 F1200
G1 X117.060 Y106.342 E24.00207
G1 X110.624 Y106.378 E24.11590
G1 F1200
G1 X110.492 Y106.413 E24.11923
G1 F1200
G1 X110.363 Y106.381 E24.12297
G1 F1200
G1 X109.637 Y106.381 E24.13837
G1 X109.573 Y106.397 E24.13979
G1 F1200
G1 X109.508 Y106.413 E24.14166
G1 F1200
G1 X109.376 Y106.378 E24.14548
G1 F1200
G1 X102.940 Y106.342 E24.27870
G1 X102.839 Y106.384 E24.28097
G1 F1200
G1 X102.788 Y106.405 E24.28242
G1 X102.843 Y106.514 E24.28565
G1 F1200
G1 X108.916 Y113.685 E24.47851
G1 X109.252 Y113.589 F7800.000
G1 F1200
G1 X109.506 Y106.504 E24.63275
G1 F1200
G1 X109.508 Y106.413 E24.63530
G1 X110.492 Y106.413 F7800.000
G1 F1200
G1 X110.494 Y106.504 E24.63785
G1 Z2.000 F7800.000
G1 X109.274 Y106.601 F7800.000
G1 F900
G1 X109.067 Y113.548 E24.77967
G1 X103.152 Y106.534 E24.96691
G1 X109.214 Y106.601 E25.09062
G1 X109.673 Y106.585 F7800.000
G1 X110.726 Y106.601 F7800.000
G1 F900
G1 X116.848 Y106.534 E25.21554
G1 X110.933 Y113.548 E25.40278
G1 X110.728 Y106.661 E25.54338
G1 X111.126 Y106.597 F7800.000
G1 X110.268 Y106.608 F7800.000
G1 F1800
G1 X109.732 Y106.608 E25.55434
G1 X109.435 Y113.638 E25.69795
G1 X108.770 Y113.829 E25.71208
G1 X102.243 Y106.153 E25.91771
G1 X117.757 Y106.153 E26.23434
G1 X111.230 Y113.829 E26.43997
G1 X110.565 Y113.638 E26.45410
G1 X110.271 Y106.668 E26.59648
G1 X110.258 Y106.208 F7800.000
G1 X110.494 Y106.504 F7800.000
G1 F1200
G1 X110.748 Y113.589 E26.75073
G1 X111.084 Y113.685 F7800.000
G1 F1200
G1 X117.157 Y106.514 E26.94359
G1 X117.184 Y106.460 E26.94484
G1 F1200
G1 X117.212 Y106.405 E26.94645
G1 X117.111 Y106.363 E26.94936
G1 F1200
G1 X117.060 Y106.342 E26.95033
G1 X110.624 Y106.378 E27.06417
G1 F1200
G1 X110.492 Y106.413 E27.06749
G1 F1200
G1 X110.363 Y106.381 E27.07123
G1 F1200
G1 X109.637 Y106.381 E27.08664
G1 X109.573 Y106.397 E27.08805
G1 F1200
G1 X109.508 Y106.413 E27.08992
G1 F1200
G1 X109.376 Y106.378 E27.09375
G1 F1200
G1 X102.940 Y106.342 E27.22696
G1 X102.839 Y106.384 E27.22923
G1 F1200
G1 X102.788 Y106.405 E27.23069
G1 X102.843 Y106.514 E27.23391
G1 F1200
G1 X108.916 Y113.685 E27.42677
G1 X109.252 Y113.589 F7800.000
G1 F1200
G1 X109.506 Y106.504 E27.58102
G1 F1200
G1 X109.508 Y106.413 E27.58357
G1 X110.492 Y106.413 F7800.000
G1 F1200
G1 X110.494 Y106.504 E27.58611
G1 Z2.250 F7800.000
G1 X109.274 Y106.601 F7800.000
G1 F900
G1 X109.067 Y113.548 E27.72794
G1 X103.152 Y106.534 E27.91518
G1 X109.214 Y106.601 E28.03888
G1 X109.673 Y106.582 F7800.000
G1 X110.726 Y106.601 F7800.000
G1 F900
G1 X116.848 Y106.534 E28.16381
G1 X110.933 Y113.548 E28.35105
G1 X110.728 Y106.661 E28.49165
G1 X111.126 Y106.597 F7800.000
G1 X110.268 Y106.608 F7800.000
G1 F1800
G1 X109.732 Y106.608 E28.50260
G1 X109.435 Y113.638 E28.64621
G1 X108.770 Y113.829 E28.66034
G1 X102.243 Y106.153 E28.86597
G1 X117.757 Y106.153 E29.18260
G1 X111.230 Y113.829 E29.38823
G1 X110.565 Y113.638 E29.40236
G1 X110.271 Y106.668 E29.54475
G1 X110.256 Y106.208 F7800.000
G1 X110.494 Y106.504 F7800.000
G1 F1200
G1 X110.748 Y113.589 E29.69899
G1 X111.084 Y113.685 F7800.000
G1 F1200
G1 X117.157 Y106.514 E29.89185
G1 X117.184 Y106.460 E29.89311
G1 F1200
G1 X117.212 Y106.405 E29.89472
G1 X117.111 Y106.363 E29.89762
G1 F1200
G1 X117.060 Y106.342 E29.89859
G1 X110.624 Y106.378 E30.01243
G1 F1200
G1 X110.492 Y106.413 E30.01576
G1 F1200
G1 X110.363 Y106.381 E30.01950
G1 F1200
G1 X109.637 Y106.381 E30.03490
G1 X109.573 Y106.397 E30.03632
G1 F1200
G1 X109.508 Y106.413 E30.03819
G1 F1200
G1 X109.376 Y106.378 E30.04201
G1 F1200
G1 X102.940 Y106.342 E30.17522
G1 X102.839 Y106.384 E30.17750
G1 F1200
G1 X102.788 Y106.405 E30.17895
G1 X102.843 Y106.514 E30.18218
G1 F1200
G1 X108.916 Y113.685 E30.37504
G1 X109.252 Y113.589 F7800.000
G1 F1200
G1 X109.506 Y106.504 E30.52928
G1 F1200
G1 X109.508 Y106.413 E30.53183
G1 X110.492 Y106.413 F7800.000
G1 F1200
G1 X110.494 Y106.504 E30.53438
G1 Z2.500 F7800.000
G1 X109.274 Y106.601 F7800.000
G1 F900
G1 X109.067 Y113.548 E30.67620
G1 X103.152 Y106.534 E30.86344
G1 X109.214 Y106.601 E30.98715
G1 X109.673 Y106.579 F7800.000
G1 X110.726 Y106.601 F7800.000
G1 F900
G1 X116.848 Y106.534 E31.11207
G1 X110.933 Y113.548 E31.29931
G1 X110.728 Y106.661 E31.43991
G1 X110.523 Y106.257 F7800.000
G1 X110.268 Y106.608 F7800.000
G1 F1800
G1 X109.732 Y106.608 E31.45087
G1 X109.435 Y113.638 E31.59448
G1 X108.770 Y113.829 E31.60861
G1 X102.243 Y106.153 E31.81424
G1 X117.757 Y106.153 E32.13087
G1 X111.230 Y113.829 E32.33650
G1 X110.565 Y113.638 E32.35063
G1 X110.271 Y106.668 E32.49301
G1 X110.258 Y106.208 F7800.000
G1 X110.494 Y106.504 F7800.000
G1 F1200
G1 X110.748 Y113.589 E32.64726
G1 X111.084 Y113.685 F7800.000
G1 F1200
